X: 990
T: Breeches Mary
T: Maire Ui Briste
R:double jig
C:"collected by J.O'Neill"
S:990 O'Neill's Music of Ireland
B:O'Neill's 990
Z:Transcribed by Robert Thorpe (thorpe@skep.com)
Z:ABCMUS 1.0
M:6/8
K:Am
f|eAA BGG|GBd dcB|egg dgg|BGB dcB|
|eAA BGG|GBd dcB|e/-^f/-ge dcB|cAA A2:|
e|daa a^ga|e=gg ged|eaa a^ga|BAB dcB|
|eaa a^ga|e=gg ged|e/-^f/-ge dcB|cAA A2:|


